ZUCCAL
CUT["Auf der Alm"
    AUF DER ALMA, DA FINDEN DIE KUEH BESTE GRAS]
REG[Europa, Mitteleuropa, Tirol]
KEY[Z1256  08  G 3/4]
MEL[-5-4  -3-53_.2  1-3-5_.
    1  -7-2-4-72-7  1-3-5_.
    -4  -3-53_.2  1-3-5_.
    5  654-5-72  1_0_
    21#  321_.-4#  -5-72_
    55  4#321-6-4#  -5_5_
    21#  321_.-4#  -5-72_.
    5  4#321-6-4#  -5_0_
    -5-4  -3-53_.2  1-3-5_.
    1  -7-2-4-72-7  1-3-5_.
    -4  -3-53_.2  1-3-5_.
    5  654-5-72  1_0_ //] >>
FCT[Liebes - Lied]
